svg/system/alert_diamond_line.svg

<?xml version="1.0" encoding="UTF-8"?>
<svg width="24px" height="24px" viewBox="0 0 24 24" version="1.1" xmlns="http://www.w3.org/2000/svg" xmlns:xlink="http://www.w3.org/1999/xlink">
    <title>alert_diamond_line</title>
    <g id="Icon" stroke="none" stroke-width="1" fill="none" fill-rule="evenodd">
        <g id="System" transform="translate(-48.000000, -480.000000)" fill-rule="nonzero">
            <g id="alert_diamond_line" transform="translate(48.000000, 480.000000)">
                <path d="M24,0 L24,24 L0,24 L0,0 L24,0 Z M12.5935,23.2578 L12.5819,23.2595 L12.5109,23.295 L12.4919,23.2987 L12.4767,23.295 L12.4057,23.2595 C12.3958,23.2564 12.387,23.259 12.3821,23.2649 L12.378,23.2758 L12.3609,23.7031 L12.3659,23.7235 L12.3769,23.7357 L12.4805,23.8097 L12.4953,23.8136 L12.5071,23.8097 L12.6107,23.7357 L12.6233,23.7197 L12.6267,23.7031 L12.6096,23.2758 C12.6076,23.2657 12.601,23.2593 12.5935,23.2578 Z M12.8584,23.1453 L12.8445,23.1473 L12.6598,23.2397 L12.6499,23.2499 L12.6472,23.2611 L12.6651,23.6906 L12.6699,23.7034 L12.6784,23.7105 L12.8793,23.8032 C12.8914,23.8069 12.9022,23.803 12.9078,23.7952 L12.9118,23.7812 L12.8777,23.1665 C12.8753,23.1546 12.8674,23.147 12.8584,23.1453 Z M12.143,23.1473 C12.1332,23.1424 12.1222,23.1453 12.1156,23.1526 L12.1099,23.1665 L12.0758,23.7812 C12.0751,23.7927 12.0828,23.8019 12.0926,23.8046 L12.1083,23.8032 L12.3092,23.7105 L12.3186,23.7024 L12.3225,23.6906 L12.3404,23.2611 L12.3372,23.2485 L12.3278,23.2397 L12.143,23.1473 Z" id="MingCute"></path>
                <path d="M13.4143,2.80795 L21.1925,10.5861 C21.9735,11.3672 21.9735,12.6335 21.1925,13.4146 L13.4143,21.1927 C12.6333,21.9738 11.3669,21.9738 10.5859,21.1927 L2.80771,13.4146 C2.02666,12.6335 2.02666,11.3672 2.80771,10.5861 L10.5859,2.80795 C11.3669,2.02691 12.6333,2.02691 13.4143,2.80795 Z M12.0001,4.22217 L4.22192,12.0003 L12.0001,19.7785 L19.7783,12.0003 L12.0001,4.22217 Z M12.0021,15.0002 C12.5543,15.0002 13.0021,15.4479 13.0021,16.0002 C13.0021,16.51305 12.6159867,16.9357092 12.1187055,16.9934725 L12.0021,17.0002 C11.4478,17.0002 11.0001,16.5525 11.0001,16.0002 C11.0001,15.48735 11.386127,15.0646908 11.8834761,15.0069275 L12.0021,15.0002 Z M12.0001,8.00019 C12.867,8.00019 13.5378,8.76006 13.4303,9.62036 L12.9923,13.1242 C12.9298,13.6246 12.5044,14.00019 12.0001,14.00019 C11.4957,14.00019 11.0703,13.6246 11.0078,13.1242 L10.5698,9.62036 C10.4623,8.76006 11.1331,8.00019 12.0001,8.00019 Z" id="形状" fill="#09244B"></path>
            </g>
        </g>
    </g>
</svg>

<svg xmlns="http://www.w3.org/2000/svg" width="24" height="24"><g fill="none" fill-rule="nonzero"><path d="M24 0v24H0V0h24ZM12.594 23.258l-.012.002-.071.035-.02.004-.014-.004-.071-.036c-.01-.003-.019 0-.024.006l-.004.01-.017.428.005.02.01.013.104.074.015.004.012-.004.104-.074.012-.016.004-.017-.017-.427c-.002-.01-.009-.017-.016-.018Zm.264-.113-.014.002-.184.093-.01.01-.003.011.018.43.005.012.008.008.201.092c.012.004.023 0 .029-.008l.004-.014-.034-.614c-.003-.012-.01-.02-.02-.022Zm-.715.002a.023.023 0 0 0-.027.006l-.006.014-.034.614c0 .012.007.02.017.024l.015-.002.201-.093.01-.008.003-.011.018-.43-.003-.012-.01-.01-.184-.092Z"/><path fill="#09244B" d="m13.414 2.808 7.778 7.778a2 2 0 0 1 0 2.829l-7.778 7.778a2 2 0 0 1-2.828 0l-7.778-7.778a2 2 0 0 1 0-2.829l7.778-7.778a2 2 0 0 1 2.828 0ZM12 4.222 4.222 12 12 19.78 19.778 12 12 4.222ZM12.002 15a1 1 0 0 1 .117 1.993l-.117.007a1 1 0 0 1-.119-1.993l.12-.007ZM12 8c.867 0 1.538.76 1.43 1.62l-.438 3.504a1 1 0 0 1-1.984 0L10.57 9.62A1.441 1.441 0 0 1 12 8Z"/></g></svg>
